src/assets/icons/check-solid.svg

<svg viewBox="0 0 20 20" xmlns="http://www.w3.org/2000/svg">
  <path d="M10 0C4.5 0 0 4.5 0 10s4.5 10 10 10 10-4.5 10-10S15.5 0 10 0zm4.2 8.3-4.8 4.8c-.4.4-1 .4-1.4 0l-2.2-2.2c-.4-.4-.4-1 0-1.4.4-.4 1-.4 1.4 0L8.7 11l4.1-4.1c.4-.4 1-.4 1.4 0 .4.4.4 1 0 1.4z"/>
</svg>

<svg viewBox="0 0 20 20" xmlns="http://www.w3.org/2000/svg">
<path d="M10 0C4.5 0 0 4.5 0 10C0 15.5 4.5 20 10 20C15.5 20 20 15.5 20 10C20 4.5 15.5 0 10 0ZM14.2 8.3L9.4 13.1C9 13.5 8.4 13.5 8 13.1L5.8 10.9C5.4 10.5 5.4 9.9 5.8 9.5C6.2 9.1 6.8 9.1 7.2 9.5L8.7 11L12.8 6.9C13.2 6.5 13.8 6.5 14.2 6.9C14.6 7.3 14.6 7.9 14.2 8.3Z"/>
</svg>
